X: 1
T: Emma (Vals fr\aan Finland)
C: Trad.
R: waltz, song
S: http://www.nyckelharpa.org/archive/written-music/american-allspel-list/ 2022/9/21
Z: 2022 John Chambers <jc:trillian.mit.edu>
M: 3/4
L: 1/8
Q: 1/4=180
K: D
DF |\
"Dm"A3 A A2 | F2 D2 DF | A3 A A2 | F2 D2 DF ||\
"A7"E4 EF | G2 F2 E2 |[1,3 "Dm"D3 "*)"E FG | "A7"A4 :|[2 "Dm"D3 E FE | D4 :|[4 "Dm"D3 E FE | D2 ||
|: F2 A2 |\
"Gm"d3 d d2 | d2 c2 B2 | "Dm"A3 A A2 | A2 G2 F2 ||\
"A7"E4 EF | G2 F2 E2 | "Dm"D3 E FG | A4 ||
|| FA |\
"Gm"d3 d d2 | d2 c2 B2 | "Dm"A3 G AB | A2 G2 F2 ||\
"A7"E4 EF | G2 F2 E2 | "Dm"D3 E FE |[1 "Dm"D2 :|2 "Dm"D4 |]
P: *) Measures 7 and 8 are sometimes played:
| D4 D2 | A,4 |
